X:33
T:Merrily Kissed the Quaker
C:Traditional
M:6/8
R:Slide
K:G
GAB D2B | c2A BGE | GAB DEG | AA/A/A AGE |
GAB D2B | c2A BGE | GAB DEF |[1 GG/G/G GFE :|[2 GG/G/G G2A |
|: BG/G/G AGG | BG/G/G AGE | GAB DEG | AA/A/A AGA |
BG/G/G AGG | BG/G/G AGE | GAB DEF |[1 GG/G/G G2A :|[2 GG/G/G G3 |
|: gg/g/g aa/a/a | bag edB | gg/g/g gab | aa/a/a agf |
gg/g/g ff/f/f | (e/f/e)e dBA | GAB DEF | GG/G/G G3 :|

%%newpage

%%scale .62
%%staffsep 20

